X:1
T:Title
%%score 1 2 3
L:1/8
M:3/2
K:C
V:1 treble nm="Part_1"
V:2 treble-8 nm="Part_2"
V:3 treble-8 nm="Part_3"
V:1
 A8 G4 | F6 D2 E2 F2 | E8 A4 | A4 G8 | A8 z4 | G6 F4 E2 | D12 | F4 A4 B4 | c8 B4 | A4 ^G6 ^F2 | %10
 A4 z2 A2 c4- | c4 c2 A2 B4 | A8 G4- | G4 ^F4 F2 E2 | G4 z4 z4 | F6 G2 A2 _B2 | A2 G2 _B3 A G2 FE | %17
 E6 F2 G2 A2- | A2 F4 E2 G2 E2- | E2 D4 ^CB, D4 | z12 | A8 A2 A2 | A4 G8 | F8 E4 | F4 z2 F2 E4 | %25
 D4 F6 E2- | E2 D4 C2 D4 | A8 G4 | F6 A2 G2 F2 | G4 F2 E4 D2 | D8 ^C4 | D12 |] %32
V:2
 D12- | D12 | A12 | _B12 | A12 | E4 D4 C4 | D12 | d12 | c8 d4 | c4 B8 | A12 | F8 G4 | c8 B4- | %13
 B4 A8 | G12 | D12 | d12 | c12 | A8 G4- | G4 E4 D4 | A12 | d8 d2 d2 | A4 B8 | A8 G4 | F8 C4 | %25
 D8 G4 | F4 E4 D4- | D4 F4 G4 | D4 F4 A4 | G4 G4 A2 F2 | G4 F4 E4 | D12 |] %32
V:3
 d12 | d4 A6 d2 | c12 | d12 | e8 c4 | B2 G2 A4 c4 | A12 | D8 G4 | C4 F4 D4 | A4 E8 | e12 | f8 d4 | %12
 e8 d4- | d4 D8 | d4 z2 d2 c2 _B2 | A4 d8 | D12 | A12 | c8 B4 | B2 A2 G4 A4 | D4 D2 D4 D2 | D12 | %22
 F4 G8 | D6 F2 C4 | c12 | _B6 A2 B4 | A4 G4 A4 | d4 c4 z2 _B2 | d4 c8 | _B2 d4 G2 D4 | %30
 c2 _B4 A4 G2 | A12 |] %32

